X: 157
T:Lydian/Major (4-gap, fa/ti) Hexatonic Scales
L:1/4
M:9/4
K:DbLyd
"^D flat"  D2 EF ABc d2|d2 cB AFE D2||
M:9/4
K:AbLyd
"^A flat"  A2 Bc efg a2|a2 gf ecB A2||
M:9/4
K:EbLyd
"^E flat"  E2 FG Bcd e2|e2 dc BGF E2||
M:9/4
K:BbLyd
"^B flat"  B2 cd fga b2|b2 ag fdc B2||
M:9/4
K:FLyd
"^F"       F2 GA cde f2|f2 ed cAG F2||
M:9/4
K:C
"^C"       C2 DE GAB c2|c2 BA GED C2||
M:9/4
K:G
"^G"       G2 AB def g2|g2 fe dBA G2||
M:9/4
K:D
"^D"       D2 EF ABc d2|d2 cB AFE D2||
M:9/4
K:A
"^A"       A2 Bc efg a2|a2 gf ecB A2||
M:9/4
K:E
"^E"       E2 FG Bcd e2|e2 dc BGF E2|]


6. The Minor/Phrygian Hexatonic Mode
== =================================

The MINOR/PHRYGIAN HEXATONIC mode has interval sequence mTT STT.  On the
white notes this could either have tonal centre A with B omitted or tonal
centre E with F omitted.  It's Acdefga in A.  In sol-fa it's either the
la-mode with ti omitted or the mi-mode with fa omitted.

